X:040
T:Dash to Portobello (reel) 
B:CRE3.174 (incorrectly Gleannta Eatharlai)
F:file ID: cre.3/040dash_p
N:Breathnach was right in spotting this as a Sean Ryan tune,  but he got
the name wrong - it's not "Glens of Aherlow" (although it sounds like it).
This version is almost note for note as it appears in Ryan's tune book 
"The Hidden Ireland".
R:reel
L:1/8
Q:180
M:C
K:D
FA|:BE~E2 EDB,A,|D2FE DA,~A,2|B,EED EFGA|B2eB dBA=c|
BE~E2 EDB,A,|D2FE DA,~A2|B,EED EFGA|BdAF GEE2:|
|:g2eg bgeg|fd~d2 Adfa|g2eg bgeg|(3efg af geef|
g3a bgeg|f2df adfd|g3a (3bag (3agf |1 gfed Bdef:|\
[2 gfed Bdgd|| 

%%%

